X:78
% %NRChange 2013-05-03
T:Steffan-Rock
O:Denmark
M:4/4
L:1/8
Q:1/4=100
K:Gmaj
%P:A
|:gb/2g/2 gd gb/2g/2 gd | de dc c2B2 | gb/2g/2 gd gb/2g/2 gd | ec AFG2 [GG,]2:|
%P:B
|:GA/B/ cB B2 A2 | de/f/ ge e2d2| GA/B/ cB B2 A2 | ec AFG2 [GG,]2:|

